X:0601
T:Duke of Gordon's Birth Day.
S:Aird's Airs v4 (NLS Glen.16b)
M:C|
L:1/8
Q:1/4=120
I: :: :|
Z:Jack Campin * www.campin.me.uk * 2009
K:G
       G>DG<B      G>DG<B  |       d<Bg>B      A/A/A A2|G<DG<B G<DG<B|!d>cB>A G/G/G G2::
"_Vio"yy[gBDG,]ya b>g d/d/d d2|"_Vio"yy[gBDG,]ya b>g e/e/e e2|!g<be<g d<bB<g|TA>GA<B G/G/G G2:|

